X: 1
T: the Boys of Malin
S: CM (Clayton March)
O: Ireland % (Donegal)
R: reel
S: Fiddle Hell Online 2021-4-15 handout for Clayton March workshop
Z: 2021 John Chambers <jc:trillian.mit.edu>
N: Compacted from original, that used 6 staffs, everything written out, without repeats.
M: 4/4
L: 1/8
K: A
"^A"|: ABcd eAc(e | {a}fe)df edcB | ABcd eAc(e |1 {a}fe)Bc d2(cB) :|2 {a}fe)Bc defg ||
"^B"|: aA (3AAA (cA)ce | aAgA fA e(f/g/) |1 aA (3AAA (cA)ce | dcBc defg :|2 a(f{a}fe) fed(e |
| dc)Bc d2(cB) ||\
"^C"|: Aece Aece | Aece d2(cB) | Aece Aec(e | {a}fe)Bc d2(cB) :| A8 |]
%%text Often played ABCB.
